ic24/ic24__note.svg

<svg fill="none" height="24" width="24" xmlns="http://www.w3.org/2000/svg"><g clip-rule="evenodd" fill-rule="evenodd"><path d="m0 4.75c0-.966.784-1.75 1.75-1.75h20.5c.966 0 1.75.784 1.75 1.75v14.5a1.75 1.75 0 0 1 -1.75 1.75h-20.5a1.75 1.75 0 0 1 -1.75-1.75zm1.75-.25a.25.25 0 0 0 -.25.25v14.5c0 .138.112.25.25.25h20.5a.25.25 0 0 0 .25-.25v-14.5a.25.25 0 0 0 -.25-.25z"/><path d="m5 8.75a.75.75 0 0 1 .75-.75h11.5a.75.75 0 0 1 0 1.5h-11.5a.75.75 0 0 1 -.75-.75zm0 4a.75.75 0 0 1 .75-.75h5.5a.75.75 0 0 1 0 1.5h-5.5a.75.75 0 0 1 -.75-.75z"/></g></svg>

<svg width="24" height="24" viewBox="0 0 24 24" fill="none" xmlns="http://www.w3.org/2000/svg">
  <path fill-rule="evenodd" clip-rule="evenodd" d="M0 4.75C0 3.784.784 3 1.75 3h20.5c.966 0 1.75.784 1.75 1.75v14.5A1.75 1.75 0 0122.25 21H1.75A1.75 1.75 0 010 19.25V4.75zm1.75-.25a.25.25 0 00-.25.25v14.5c0 .138.112.25.25.25h20.5a.25.25 0 00.25-.25V4.75a.25.25 0 00-.25-.25H1.75z" />
  <path fill-rule="evenodd" clip-rule="evenodd" d="M5 8.75A.75.75 0 015.75 8h11.5a.75.75 0 010 1.5H5.75A.75.75 0 015 8.75zm0 4a.75.75 0 01.75-.75h5.5a.75.75 0 010 1.5h-5.5a.75.75 0 01-.75-.75z" />
</svg>
